contributed-vectors/carris.svg

<?xml version="1.0" encoding="UTF-8" standalone="no"?>
<svg
   width="192"
   height="192"
   viewBox="0 0 14.803661 14.803661"
   version="1.1"
   id="svg12"
   sodipodi:docname="carris.svg"
   inkscape:version="1.2 (dc2aedaf03, 2022-05-15)"
   inkscape:export-filename="png/carris.png"
   inkscape:export-xdpi="96"
   inkscape:export-ydpi="96"
   xmlns:inkscape="http://www.inkscape.org/namespaces/inkscape"
   xmlns:sodipodi="http://sodipodi.sourceforge.net/DTD/sodipodi-0.dtd"
   xmlns="http://www.w3.org/2000/svg"
   xmlns:svg="http://www.w3.org/2000/svg"
   xmlns:rdf="http://www.w3.org/1999/02/22-rdf-syntax-ns#"
   xmlns:cc="http://creativecommons.org/ns#"
   xmlns:dc="http://purl.org/dc/elements/1.1/">
  <metadata
     id="metadata18">
    <rdf:RDF>
      <cc:Work
         rdf:about="">
        <dc:format>image/svg+xml</dc:format>
        <dc:type
           rdf:resource="http://purl.org/dc/dcmitype/StillImage" />
        <dc:title />
      </cc:Work>
    </rdf:RDF>
  </metadata>
  <defs
     id="defs16" />
  <sodipodi:namedview
     pagecolor="#ffffff"
     bordercolor="#666666"
     borderopacity="1"
     objecttolerance="10"
     gridtolerance="10"
     guidetolerance="10"
     inkscape:pageopacity="0"
     inkscape:pageshadow="2"
     inkscape:window-width="1680"
     inkscape:window-height="1022"
     id="namedview14"
     showgrid="false"
     inkscape:zoom="1.8101934"
     inkscape:cx="31.212135"
     inkscape:cy="54.69029"
     inkscape:window-x="1920"
     inkscape:window-y="0"
     inkscape:window-maximized="1"
     inkscape:current-layer="svg12"
     fit-margin-top="0"
     fit-margin-left="0"
     fit-margin-right="0"
     fit-margin-bottom="0"
     inkscape:showpageshadow="0"
     inkscape:pagecheckerboard="0"
     inkscape:deskcolor="#d1d1d1" />
  <rect
     id="rect835"
     rx="0.76598465"
     y="1.5420483"
     x="1.5420476"
     height="11.719565"
     width="11.719565"
     style="fill:#f9de82;fill-opacity:1;fill-rule:evenodd;stroke:none;stroke-width:0.0761011;stroke-opacity:1" />
  <path
     style="clip-rule:evenodd;fill:#ffffff;fill-opacity:1;fill-rule:evenodd;stroke-width:0.993295"
     inkscape:connector-curvature="0"
     id="path6"
     d="m 6.4216014,5.397168 c 0.3556013,0 0.6901467,0.09364 0.9800954,0.2571223 A 2.019829,2.019829 0 0 0 6.7978674,6.1761184 1.2738367,1.2738367 0 0 0 6.4216014,6.11962 c -0.7062344,0 -1.2823378,0.5759723 -1.2823378,1.2824678 0,0.7059722 0.5759723,1.2820767 1.2823378,1.2820767 0.1307842,0 0.2572523,-0.019619 0.376266,-0.056236 A 2.0276759,2.0276759 0 0 0 7.4016968,9.1494942 1.990141,1.990141 0 0 1 6.4216014,9.4064854 c -1.1039484,0 -2.0046587,-0.9004482 -2.0046587,-2.0043965 0,-1.1043406 0.9007103,-2.0049198 2.0046587,-2.0049209 z m 1.584448,0.7788193 A 1.9941953,1.9941953 0 0 1 8.426259,7.4019578 c 0,0.4607514 -0.1570714,0.8863224 -0.4204707,1.2258383 A 1.2897923,1.2897923 0 0 1 7.4016968,8.2268126 1.2748829,1.2748829 0 0 0 7.7039392,7.4019578 c 0,-0.3138819 -0.1136522,-0.6019997 -0.3022424,-0.8252481 A 1.2907078,1.2907078 0 0 1 8.0060494,6.1759873 Z" />
  <path
     style="clip-rule:evenodd;fill:#738dbe;fill-opacity:1;fill-rule:evenodd;stroke-width:0.993295"
     d="M 8.3820576,5.3971723 A 1.9919719,1.9919719 0 0 0 7.4017055,5.6542892 2.0268913,2.0268913 0 0 1 8.0060429,6.1761238 c 0.1190137,-0.036748 0.2452306,-0.056509 0.3760147,-0.056509 0.7063655,0 1.2823313,0.5761045 1.2823313,1.28247 0,0.7061033 -0.5760969,1.2820756 -1.2823313,1.2820756 -0.1307841,0 -0.257001,-0.01974 -0.3760147,-0.056225 A 2.0315995,2.0315995 0 0 1 7.4017055,9.1494942 1.9918412,1.9918412 0 0 0 8.3820576,9.406492 c 1.1039484,0 2.0046594,-0.9004559 2.0046594,-2.0044042 0,-1.1043406 -0.900711,-2.0049166 -2.0046594,-2.0049155 z M 6.7978619,6.1759851 C 6.5344627,6.5152398 6.3773967,6.9406754 6.3773967,7.4019501 A 1.9941953,1.9941953 0 0 0 6.7978619,8.6277972 1.2854765,1.2854765 0 0 0 7.4017055,8.2268104 C 7.2133764,8.003562 7.0997253,7.7155709 7.0997253,7.4019501 A 1.2768446,1.2768446 0 0 1 7.4017055,6.5767174 1.2869151,1.2869151 0 0 0 6.7978619,6.1759851 Z"
     id="path8"
     inkscape:connector-curvature="0" />
</svg>

<svg xmlns="http://www.w3.org/2000/svg" width="192" height="192" viewBox="0 0 14.804 14.804"><rect width="11.72" height="11.72" x="1.542" y="1.542" rx=".766" style="fill:#f9de82;fill-opacity:1;fill-rule:evenodd;stroke:none;stroke-width:.0761011;stroke-opacity:1"/><path d="M6.422 5.397c.355 0 .69.094.98.257a2.02 2.02 0 0 0-.604.522 1.274 1.274 0 0 0-.376-.056c-.707 0-1.283.576-1.283 1.282a1.285 1.285 0 0 0 1.659 1.226 2.028 2.028 0 0 0 .604.521 1.99 1.99 0 0 1-.98.257c-1.104 0-2.005-.9-2.005-2.004s.9-2.005 2.005-2.005zm1.584.779a1.994 1.994 0 0 1 .42 1.226c0 .46-.157.886-.42 1.226a1.29 1.29 0 0 1-.604-.401 1.275 1.275 0 0 0 .302-.825c0-.314-.114-.602-.302-.825a1.29 1.29 0 0 1 .604-.401Z" style="clip-rule:evenodd;fill:#fff;fill-opacity:1;fill-rule:evenodd;stroke-width:.993295"/><path d="M8.382 5.397a1.992 1.992 0 0 0-.98.257 2.027 2.027 0 0 1 .604.522 1.285 1.285 0 0 1 1.658 1.226 1.285 1.285 0 0 1-1.658 1.226 2.032 2.032 0 0 1-.604.521 1.992 1.992 0 0 0 .98.257c1.104 0 2.005-.9 2.005-2.004s-.901-2.005-2.005-2.005zm-1.584.779c-.264.34-.42.765-.42 1.226a1.994 1.994 0 0 0 .42 1.226 1.285 1.285 0 0 0 .604-.401 1.276 1.276 0 0 1-.302-.825 1.277 1.277 0 0 1 .302-.825 1.287 1.287 0 0 0-.604-.401Z" style="clip-rule:evenodd;fill:#738dbe;fill-opacity:1;fill-rule:evenodd;stroke-width:.993295"/></svg>
